imagenes/mercadopago.svg

<svg width="48" height="48" viewBox="0 0 48 48" fill="none" xmlns="http://www.w3.org/2000/svg">
<path d="M22.471 24.946C20.493 19.409 17.587 14.065 16.386 11.951C16.034 11.332 15.599 10.765 15.096 10.261L12.543 7.70796C12.152 7.31696 11.129 7.70796 11.129 7.70796L9.49699 8.73396L9.33499 11.053L8.77299 11C8.25499 11 7.83499 11.42 7.83499 11.938C7.83499 12.458 8.24799 12.907 8.76799 12.899C10.676 12.869 12.335 14.5 12.335 14.5H14.335C14.655 14.82 15.474 15.866 15.663 16.939C15.77 17.55 15.817 18.168 15.782 18.787C15.458 24.622 16.835 26 16.835 26C11.335 22.5 2.01599 23.036 2.01599 23.036L2.20899 26.052L4.99999 31C5.91899 31.212 5.74399 30.374 6.76499 30.496C12.964 31.237 20.335 30.5 20.335 30.5C21.835 30.5 22.293 29.707 23 29C24 28 22.849 26.004 22.471 24.946Z" fill="#FAFAFA"/>
<path d="M24.913 24.946C26.891 19.409 29.797 14.065 30.998 11.951C31.35 11.332 31.785 10.765 32.288 10.261L34.841 7.70796C35.232 7.31696 36.255 7.70796 36.255 7.70796L37.814 8.99996L38.049 11.053L38.611 11C39.129 11 39.549 11.42 39.549 11.938C39.549 12.458 39.136 12.907 38.616 12.899C36.708 12.869 35.049 14.5 35.049 14.5H33.049C32.729 14.82 31.91 15.866 31.721 16.939C31.614 17.55 31.567 18.168 31.602 18.787C31.926 24.622 30.549 26 30.549 26C36.049 22.5 45.549 23 45.549 23L45.384 26L42.384 31C41.465 31.212 41.64 30.374 40.619 30.496C34.42 31.237 27.049 30.5 27.049 30.5C25.549 30.5 25.091 29.707 24.384 29C23.384 28 24.535 26.004 24.913 24.946Z" fill="#FAFAFA"/>
<path d="M43.832 16.326C43.521 15.911 43.188 15.518 42.84 15.139C42.781 15.075 42.717 15.016 42.657 14.953C42.348 14.627 42.029 14.314 41.697 14.015C41.671 13.992 41.644 13.97 41.618 13.947C41.031 13.425 40.417 12.935 39.773 12.493C39.844 12.318 39.883 12.129 39.883 11.938C39.883 11.146 39.24 10.501 38.402 10.501H38.398L38.383 10.503V9.31995C38.383 8.78595 38.095 8.28795 37.633 8.02095L36.269 7.23995C36.048 7.15495 34.913 6.76195 34.323 7.35295L32.486 9.19095C32.105 9.08495 31.596 8.94095 31.275 8.86495C28.893 8.28795 26.446 8.01395 24 7.99995C20.969 7.99595 17.905 8.38995 14.982 9.27495L13.061 7.35395C12.471 6.76395 11.336 7.15495 11.043 7.27495L9.75002 8.02095C9.28802 8.28795 9.00002 8.78595 9.00002 9.31995V10.506L8.93802 10.5C8.14502 10.5 7.50002 11.146 7.50002 11.938C7.50002 12.249 7.60302 12.552 7.78302 12.803C6.80502 13.518 5.88002 14.315 5.06102 15.225C4.74602 15.575 4.44502 15.9399 4.16102 16.3209C2.63802 18.3459 2.06102 20.87 2.00002 23.5C1.96502 26.128 2.45502 28.723 3.93202 30.843C5.41002 32.975 7.38302 34.697 9.55602 36.006C13.934 38.615 18.992 39.755 24 39.852C26.511 39.826 29.023 39.533 31.471 38.928C33.913 38.304 36.281 37.346 38.457 36.028C40.62 34.7 42.6 32.9869 44.074 30.8479C45.55 28.726 46.006 26.1289 45.968 23.5009C45.905 20.8699 45.357 18.348 43.832 16.326ZM40.793 15.139C41.022 15.364 41.241 15.598 41.455 15.836C41.551 15.943 41.65 16.047 41.743 16.156C42.036 16.503 42.316 16.859 42.571 17.232C43.659 18.811 44.356 20.622 44.528 22.474C42.254 22.443 36.084 22.588 31.486 24.816C31.821 23.683 32.105 21.7999 31.935 18.7579C31.905 18.2059 31.943 17.623 32.048 17.025C32.187 16.235 32.75 15.407 33.102 14.999H33.829C34.56 14.999 35.261 14.775 35.854 14.352C36.478 13.908 37.413 13.371 38.442 13.398C38.514 13.398 38.581 13.368 38.652 13.358C38.919 13.55 39.188 13.741 39.444 13.945C39.52 14.006 39.594 14.069 39.669 14.131C39.942 14.355 40.207 14.588 40.464 14.827C40.576 14.93 40.686 15.034 40.793 15.139ZM24 8.99995C26.369 9.02595 28.734 9.30295 31.027 9.86995C31.235 9.92295 31.439 9.98795 31.644 10.051C31.162 10.554 30.738 11.105 30.398 11.703C29.223 13.771 26.274 19.186 24.277 24.778C24.202 24.986 24.114 25.208 24.022 25.438C23.91 25.719 23.796 26.01 23.691 26.306C23.587 26.01 23.472 25.718 23.36 25.438C23.268 25.208 23.18 24.986 23.105 24.778C21.105 19.179 18.158 13.769 16.984 11.703C16.687 11.18 16.317 10.699 15.91 10.247C18.522 9.46095 21.264 9.05395 24 8.99995ZM5.43502 17.238C5.68602 16.874 5.95902 16.525 6.24602 16.186C6.34002 16.074 6.44202 15.968 6.54002 15.859C6.74202 15.634 6.94802 15.4109 7.16502 15.1969C7.28002 15.0829 7.39802 14.973 7.51602 14.862C7.74502 14.649 7.97902 14.441 8.22002 14.24C8.31902 14.157 8.41802 14.074 8.51902 13.993C8.76202 13.8 9.01402 13.617 9.26702 13.435C10.153 13.524 10.974 13.957 11.529 14.353C12.123 14.776 12.823 15 13.555 15H14.282C14.634 15.407 15.197 16.2349 15.336 17.0259C15.441 17.6229 15.479 18.206 15.449 18.759C15.279 21.801 15.563 23.686 15.898 24.818C11.705 22.789 6.16402 22.485 3.47302 22.474C3.64802 20.623 4.34602 18.814 5.43502 17.238ZM6.23602 30.271C6.04402 30.047 5.84002 29.8339 5.66402 29.5979C4.32902 27.826 3.49002 25.705 3.42602 23.5C3.42602 23.492 3.42702 23.483 3.42702 23.475C6.30502 23.481 12.653 23.826 16.732 26.422C16.943 26.556 17.216 26.51 17.378 26.318C17.54 26.128 17.531 25.841 17.364 25.656C17.352 25.642 16.146 24.2339 16.448 18.8139C16.483 18.1839 16.441 17.5239 16.322 16.8519C16.104 15.6169 15.189 14.48 14.855 14.146C14.76 14.053 14.632 14 14.5 14H13.555C13.033 14 12.534 13.841 12.11 13.538C11.365 13.007 10.185 12.391 8.92502 12.398C8.79402 12.402 8.69902 12.335 8.64402 12.281C8.55202 12.192 8.50002 12.067 8.50002 11.938C8.50002 11.696 8.69602 11.5 8.89102 11.498L9.45302 11.552C9.56402 11.559 9.66902 11.525 9.76102 11.468L10.147 11.854C10.242 11.949 10.37 12 10.5 12C10.553 12 10.606 11.991 10.658 11.975L11.865 11.573L13.146 12.854C13.244 12.951 13.372 13 13.5 13C13.628 13 13.756 12.951 13.854 12.854C14.049 12.659 14.049 12.342 13.854 12.147L12.707 11L12.853 10.854C12.951 10.756 13 10.628 13 10.5C13 10.372 12.951 10.244 12.854 10.146L11.854 9.14595C11.659 8.95095 11.342 8.95095 11.147 9.14595C11.049 9.24395 11 9.37195 11 9.49995C11 9.62795 11.049 9.75595 11.146 9.85395L11.792 10.5L11.729 10.563L10.634 10.928L10 10.293V9.31995C10 9.14195 10.096 8.97595 10.25 8.88595L11.47 8.17395C11.835 8.03495 12.262 7.99495 12.353 8.05995L14.907 10.614C15.382 11.089 15.789 11.621 16.116 12.197C17.277 14.24 20.192 19.59 22.165 25.114C22.243 25.333 22.336 25.566 22.432 25.808C22.779 26.679 23.173 27.666 23.012 28.391C22.808 29.309 21.728 30 20.49 30C20.42 30.002 13.367 30.139 7.06502 30.011C6.79802 30.002 6.50902 30.114 6.23602 30.271ZM37.217 33.9179C35.237 35.0369 33.061 35.816 30.832 36.337C28.604 36.876 26.304 37.1349 24 37.1489C19.408 37.1589 14.741 36.198 10.77 33.941C9.36902 33.142 8.06102 32.1769 6.93802 31.0499C6.97402 31.0359 7.02102 31.012 7.04502 31.011C13.367 31.138 20.439 31.001 20.5 31C21.896 31 23.116 30.327 23.692 29.33C24.267 30.327 25.486 31 26.874 31C26.945 31.002 34.02 31.139 40.336 31.011C40.425 31.014 40.608 31.113 40.819 31.26C39.748 32.289 38.531 33.1849 37.217 33.9179ZM42.329 29.593C42.082 29.922 41.803 30.228 41.526 30.534C41.156 30.261 40.716 30.01 40.334 30.01C40.329 30.01 40.323 30.01 40.317 30.01C34.017 30.135 26.963 30 26.883 29.999C25.655 29.999 24.575 29.308 24.371 28.391C24.21 27.666 24.603 26.679 24.951 25.808C25.047 25.566 25.14 25.332 25.218 25.114C27.189 19.596 30.105 14.243 31.267 12.197C31.594 11.621 32.001 11.089 32.476 10.614L35.026 8.06295C35.122 7.99995 35.548 8.03695 35.841 8.13995L37.134 8.88695C37.288 8.97695 37.384 9.14295 37.384 9.32095V10.294L36.749 10.929L35.654 10.564L35.591 10.5L36.237 9.85395C36.335 9.75595 36.383 9.62795 36.383 9.49995C36.383 9.37195 36.334 9.24395 36.237 9.14595C36.042 8.95095 35.725 8.95095 35.53 9.14595L34.53 10.146C34.432 10.244 34.384 10.372 34.384 10.5C34.384 10.628 34.433 10.756 34.53 10.854L34.677 11L33.531 12.146C33.336 12.341 33.336 12.658 33.531 12.853C33.628 12.951 33.756 13 33.884 13C34.012 13 34.14 12.951 34.238 12.854L35.519 11.573L36.726 11.975C36.777 11.991 36.831 12 36.884 12C37.014 12 37.142 11.949 37.238 11.854L37.624 11.468C37.716 11.525 37.821 11.56 37.932 11.552L38.447 11.5C38.689 11.5 38.885 11.696 38.885 11.938C38.885 12.067 38.833 12.192 38.742 12.281C38.686 12.336 38.585 12.39 38.46 12.398C37.181 12.409 36.021 13.006 35.275 13.538C34.851 13.841 34.352 14 33.83 14H32.884C32.751 14 32.624 14.053 32.53 14.146C32.196 14.48 31.28 15.6189 31.063 16.8519C30.945 17.5259 30.902 18.186 30.937 18.815C31.239 24.234 30.033 25.642 30.03 25.646C29.85 25.827 29.834 26.114 29.993 26.312C30.152 26.511 30.435 26.5579 30.652 26.4209C35.06 23.6159 42.228 23.452 44.574 23.479C44.574 23.486 44.575 23.492 44.575 23.499C44.507 25.705 43.666 27.824 42.329 29.593Z" fill="#141414"/>
</svg>

<svg width="48" height="48" fill="none" xmlns="http://www.w3.org/2000/svg"><path d="M22.471 24.946c-1.978-5.537-4.884-10.881-6.085-12.995a7.974 7.974 0 0 0-1.29-1.69l-2.553-2.553c-.391-.391-1.414 0-1.414 0L9.497 8.734l-.162 2.319L8.773 11a.938.938 0 0 0-.938.938c0 .52.413.969.933.961 1.908-.03 3.567 1.601 3.567 1.601h2c.32.32 1.139 1.366 1.328 2.439.107.611.154 1.229.119 1.848C15.458 24.622 16.835 26 16.835 26c-5.5-3.5-14.819-2.964-14.819-2.964l.193 3.016L5 31c.919.212.744-.626 1.765-.504 6.199.741 13.57.004 13.57.004 1.5 0 1.958-.793 2.665-1.5 1-1-.151-2.996-.529-4.054ZM24.913 24.946c1.978-5.537 4.884-10.881 6.085-12.995a7.974 7.974 0 0 1 1.29-1.69l2.553-2.553c.391-.391 1.414 0 1.414 0L37.814 9l.235 2.053.562-.053c.518 0 .938.42.938.938 0 .52-.413.969-.933.961-1.908-.03-3.567 1.601-3.567 1.601h-2c-.32.32-1.139 1.366-1.328 2.439a8.064 8.064 0 0 0-.119 1.848C31.926 24.622 30.549 26 30.549 26c5.5-3.5 15-3 15-3l-.165 3-3 5c-.919.212-.744-.626-1.765-.504-6.199.741-13.57.004-13.57.004-1.5 0-1.958-.793-2.665-1.5-1-1 .151-2.996.529-4.054Z" fill="#FAFAFA"/><path d="M43.832 16.326a15.506 15.506 0 0 0-.992-1.187c-.059-.064-.123-.123-.183-.186a16.976 16.976 0 0 0-.96-.938l-.079-.068a18.766 18.766 0 0 0-1.845-1.454 1.48 1.48 0 0 0 .11-.555c0-.792-.643-1.437-1.481-1.437h-.004l-.015.002V9.32c0-.534-.288-1.032-.75-1.3l-1.364-.78c-.221-.085-1.356-.478-1.946.113l-1.837 1.838c-.381-.106-.89-.25-1.211-.326A31.682 31.682 0 0 0 24 8c-3.031-.004-6.095.39-9.018 1.275l-1.921-1.921c-.59-.59-1.725-.199-2.018-.08l-1.293.747C9.288 8.288 9 8.786 9 9.32v1.186l-.062-.006A1.44 1.44 0 0 0 7.5 11.938c0 .311.103.614.283.865-.978.715-1.903 1.512-2.722 2.422-.315.35-.616.715-.9 1.096C2.638 18.346 2.061 20.87 2 23.5c-.035 2.628.455 5.223 1.932 7.343 1.478 2.132 3.451 3.854 5.624 5.163 4.378 2.609 9.436 3.749 14.444 3.846a32.546 32.546 0 0 0 7.471-.924c2.442-.624 4.81-1.582 6.986-2.9 2.163-1.328 4.143-3.041 5.617-5.18 1.476-2.122 1.932-4.72 1.894-7.347-.063-2.631-.611-5.153-2.136-7.175Zm-3.039-1.187c.229.225.448.459.662.697.096.107.195.211.288.32.293.347.573.703.828 1.076 1.088 1.579 1.785 3.39 1.957 5.242-2.274-.031-8.444.114-13.042 2.342.335-1.133.619-3.016.449-6.058a7.652 7.652 0 0 1 .113-1.733c.139-.79.702-1.618 1.054-2.026h.727a3.47 3.47 0 0 0 2.025-.647c.624-.444 1.559-.981 2.588-.954.072 0 .139-.03.21-.04.267.192.536.383.792.587.076.061.15.124.225.186a17.055 17.055 0 0 1 1.124 1.008ZM24 9c2.369.026 4.734.303 7.027.87.208.053.412.118.617.181a8.399 8.399 0 0 0-1.246 1.652c-1.175 2.068-4.124 7.483-6.121 13.075-.075.208-.163.43-.255.66-.112.281-.226.572-.331.868a21.833 21.833 0 0 0-.331-.868c-.092-.23-.18-.452-.255-.66-2-5.599-4.947-11.009-6.121-13.075a8.375 8.375 0 0 0-1.074-1.456C18.522 9.461 21.264 9.054 24 9ZM5.435 17.238c.251-.364.524-.713.811-1.052.094-.112.196-.218.294-.327.202-.225.408-.448.625-.662.115-.114.233-.224.351-.335.229-.213.463-.421.704-.622.099-.083.198-.166.299-.247.243-.193.495-.376.748-.558.886.089 1.707.522 2.262.918a3.472 3.472 0 0 0 2.026.647h.727c.352.407.915 1.235 1.054 2.026.105.597.143 1.18.113 1.733-.17 3.042.114 4.927.449 6.059-4.193-2.029-9.734-2.333-12.425-2.344.175-1.851.873-3.66 1.962-5.236Zm.801 13.033c-.192-.224-.396-.437-.572-.673-1.335-1.772-2.174-3.893-2.238-6.098l.001-.025c2.878.006 9.226.351 13.305 2.947a.495.495 0 0 0 .646-.104.506.506 0 0 0-.014-.662c-.012-.014-1.218-1.422-.916-6.842a8.558 8.558 0 0 0-.126-1.962c-.218-1.235-1.133-2.372-1.467-2.706A.51.51 0 0 0 14.5 14h-.945a2.469 2.469 0 0 1-1.445-.462c-.745-.531-1.925-1.147-3.185-1.14a.384.384 0 0 1-.281-.117.479.479 0 0 1-.144-.343c0-.242.196-.438.391-.44l.562.054a.522.522 0 0 0 .308-.084l.386.386a.5.5 0 0 0 .511.121l1.207-.402 1.281 1.281a.502.502 0 0 0 .708 0 .5.5 0 0 0 0-.707L12.707 11l.146-.146a.5.5 0 0 0 .001-.708l-1-1a.5.5 0 0 0-.708.708l.646.646-.063.063-1.095.365-.634-.635V9.32c0-.178.096-.344.25-.434l1.22-.712c.365-.139.792-.179.883-.114l2.554 2.554a7.425 7.425 0 0 1 1.209 1.583c1.161 2.043 4.076 7.393 6.049 12.917.078.219.171.452.267.694.347.871.741 1.858.58 2.583-.204.918-1.284 1.609-2.522 1.609-.07.002-7.123.139-13.425.011-.267-.009-.556.103-.829.26Zm30.981 3.647c-1.98 1.119-4.156 1.898-6.385 2.419a29.853 29.853 0 0 1-6.832.812c-4.592.01-9.259-.951-13.23-3.208-1.401-.799-2.709-1.764-3.832-2.891.036-.014.083-.038.107-.039 6.322.127 13.394-.01 13.455-.011 1.396 0 2.616-.673 3.192-1.67.575.997 1.794 1.67 3.182 1.67.071.002 7.146.139 13.462.011.089.003.272.102.483.249a17.537 17.537 0 0 1-3.602 2.658Zm5.112-4.325c-.247.329-.526.635-.803.941-.37-.273-.81-.524-1.192-.524h-.017c-6.3.125-13.354-.01-13.434-.011-1.228 0-2.308-.691-2.512-1.608-.161-.725.232-1.712.58-2.583.096-.242.189-.476.267-.694 1.971-5.518 4.887-10.871 6.049-12.917a7.425 7.425 0 0 1 1.209-1.583l2.55-2.551c.096-.063.522-.026.815.077l1.293.747c.154.09.25.256.25.434v.973l-.635.635-1.095-.365-.063-.064.646-.646a.498.498 0 0 0 0-.708.5.5 0 0 0-.707 0l-1 1a.498.498 0 0 0 0 .708l.147.146-1.146 1.146a.5.5 0 0 0 .707.708l1.281-1.281 1.207.402a.504.504 0 0 0 .512-.121l.386-.386a.514.514 0 0 0 .308.084l.515-.052c.242 0 .438.196.438.438a.482.482 0 0 1-.143.343.453.453 0 0 1-.282.117c-1.279.011-2.439.608-3.185 1.14A2.469 2.469 0 0 1 33.83 14h-.946a.504.504 0 0 0-.354.146c-.334.334-1.25 1.473-1.467 2.706a8.635 8.635 0 0 0-.126 1.963c.302 5.419-.904 6.827-.907 6.831a.5.5 0 0 0 .622.775c4.408-2.805 11.576-2.969 13.922-2.942l.001.02c-.068 2.206-.909 4.325-2.246 6.094Z" fill="#141414"/></svg>
